**kern	**silbe	**kern	**silbe	**harmony	**phrase	**leadinstrument	**rhyme	**timestamp	**harte
*ICvox	*	*ICvox	*	*M4/4	*	*	*	*	*M4/4
*VRlead	*	*VRbacking*VRharmonize	*	*	*	*	*	*	*
*Hstimme	*	*Nstimme	*	*	*	*	*	*	*
*C:	*	*C:	*	*C:	*	*	*	*	*C:
*M4/4	*	*M4/4	*	*	*	*	*	*	*
*clefG2	*	*clefG2	*	*	*	*	*	*	*
r;	.	r;	.	1r;	.	r	.	0	N.C.
=1	=1	=1	=1	=1	=1	=1	=1	=1	=1
*>Letter>A	*>Letter>A	*>Letter>A	*>Letter>A	*>Letter>A	*>Letter>A	*>Letter>A	*>Letter>A	*>Letter>A	*>Letter>A
*>Label>Intro	*>Label>Intro	*>Label>Intro	*>Label>Intro	*>Label>Intro	*>Label>Intro	*>Label>Intro	*>Label>Intro	*>Label>Intro	*>Label>Intro
1r	.	1r	.	1Fm	newline	guitar	.	0.597	F:min
=2	=2	=2	=2	=2	=2	=2	=2	=2	=2
1r	.	1r	.	1Fm	.	guitar	.	2.585	F:min
=3	=3	=3	=3	=3	=3	=3	=3	=3	=3
1r	.	1r	.	1G-M	.	guitar	.	4.573	G-:maj/5
=4	=4	=4	=4	=4	=4	=4	=4	=4	=4
1r	.	1r	.	1G-M	.	guitar	.	6.561	G-:maj/5
=5	=5	=5	=5	=5	=5	=5	=5	=5	=5
1r	.	1r	.	1F-M	newline	guitar	.	8.549	F-:maj
=6	=6	=6	=6	=6	=6	=6	=6	=6	=6
1r	.	1r	.	1F-M	.	guitar	.	10.548	F-:maj
=7	=7	=7	=7	=7	=7	=7	=7	=7	=7
1r	.	1r	.	1CM	.	guitar	.	12.547	C:maj
=8	=8	=8	=8	=8	=8	=8	=8	=8	=8
1r	.	1r	.	1CM	.	guitar	.	14.546	C:maj
=9	=9	=9	=9	=9	=9	=9	=9	=9	=9
*>Letter>B	*>Letter>B	*>Letter>B	*>Letter>B	*>Letter>B	*>Letter>B	*>Letter>B	*>Letter>B	*>Letter>B	*>Letter>B
*>Label>Verse	*>Label>Verse	*>Label>Verse	*>Label>Verse	*>Label>Verse	*>Label>Verse	*>Label>Verse	*>Label>Verse	*>Label>Verse	*>Label>Verse
4r	.	1r	.	1FM	newline	voice	.	16.545	F:maj/5
8d	A-	.	.	.	.	.	.	.	.
[8e	-long	.	.	.	.	.	.	.	.
8e]	_	.	.	.	.	.	.	.	.
4g	the	.	.	.	.	.	.	.	.
[8g	sand,	.	.	.	.	.	A	.	.
=10	=10	=10	=10	=10	=10	=10	=10	=10	=10
1g]	_	1r	.	1CMM	.	voice	.	18.614	C:maj7
=11	=11	=11	=11	=11	=11	=11	=11	=11	=11
4r	.	1r	.	1FM	.	voice	.	20.682	F:maj/5
4d	let's	.	.	.	.	.	.	.	.
8e	walk	.	.	.	.	.	.	.	.
4g	the	.	.	.	.	.	.	.	.
8g	shores	.	.	.	.	.	.	.	.
=12	=12	=12	=12	=12	=12	=12	=12	=12	=12
4a	_	1r	.	4.Emm	.	voice	.	22.751	E:min7
8g	to	.	.	.	.	.	.	.	.
8dq	_	.	.	.	.	.	.	.	.
[8e	ge	.	.	8%5Amm	.	voice	(B	23.785	A:min7
8e]	_	.	.	.	.	.	.	.	.
8d	ther	.	.	.	.	.	b)	.	.
4c	now,	.	.	.	.	.	.	.	.
=13	=13	=13	=13	=13	=13	=13	=13	=13	=13
4r	.	1r	.	1FM	newline	voice	.	24.819	F:maj/5
4d	yes,	.	.	.	.	.	.	.	.
8e	hand	.	.	.	.	.	.	.	.
4g	in	.	.	.	.	.	.	.	.
[8g	hand,	.	.	.	.	.	A	.	.
=14	=14	=14	=14	=14	=14	=14	=14	=14	=14
1g]	_	1r	.	1CMM	.	voice	.	26.846	C:maj7
=15	=15	=15	=15	=15	=15	=15	=15	=15	=15
4r	.	1r	.	1FM	.	voice	.	28.873	F:maj/5
4d	it's	.	.	.	.	.	.	.	.
8e	gon-	.	.	.	.	.	.	.	.
4g	-na	.	.	.	.	.	.	.	.
8g	be	.	.	.	.	.	.	.	.
=16	=16	=16	=16	=16	=16	=16	=16	=16	=16
4a	_	1r	.	4.Emm	.	voice	.	30.9	E:min7
8g	fair	.	.	.	.	.	.	.	.
8dq	_	.	.	.	.	.	.	.	.
[8e	wea	.	.	8%5Amm	.	voice	(B	31.913	A:min7
8e]	_	.	.	.	.	.	.	.	.
8d	ther	.	.	.	.	.	b)	.	.
4c	now.	.	.	.	.	.	C	.	.
=17	=17	=17	=17	=17	=17	=17	=17	=17	=17
4a	When	1r	.	4.Emm	newline	voice	.	32.926	E:min7
8g	the	.	.	.	.	.	.	.	.
8dq	_	.	.	.	.	.	.	.	.
[8e	stars	.	.	8%5Amm	.	voice	.	33.919	A:min7
8e]	_	.	.	.	.	.	.	.	.
8d	come	.	.	.	.	.	.	.	.
4c	out,	.	.	.	.	.	C	.	.
=18	=18	=18	=18	=18	=18	=18	=18	=18	=18
4a	stop,	1r	.	2Dmm	.	voice	.	34.911	D:min7
8r	.	.	.	.	.	.	.	.	.
8g	to	.	.	.	.	.	.	.	.
8e	count	.	.	2GM	.	voice	C	35.903	G:maj
8d	them	.	.	.	.	.	.	.	.
8c	in	.	.	.	.	.	.	.	.
[8dq	_	.	.	.	.	.	.	.	.
8c	the	.	.	.	.	.	.	.	.
=19	=19	=19	=19	=19	=19	=19	=19	=19	=19
8d	_	1r	.	4CM	.	voice	.	36.895	C:sus4
[8c	sky	.	.	.	.	.	.	.	.
2.c_	_	.	.	4CM	.	voice	.	37.391	C:maj
.	.	.	.	4CM	.	voice	.	37.887	C:sus4
.	.	.	.	4CM	.	voice	.	38.383	C:maj
=20	=20	=20	=20	=20	=20	=20	=20	=20	=20
2c]	_	1r	.	4Fm	.	voice	.	38.879	F:min/5
.	.	.	.	4CM	.	voice	.	39.375	C:maj
2r	.	.	.	4Fm	.	voice	.	39.871	F:min/5
.	.	.	.	4CM	.	voice	.	40.367	C:maj
=21	=21	=21	=21	=21	=21	=21	=21	=21	=21
*>Letter>C	*>Letter>C	*>Letter>C	*>Letter>C	*>Letter>C	*>Letter>C	*>Letter>C	*>Letter>C	*>Letter>C	*>Letter>C
*>Label>Chorus	*>Label>Chorus	*>Label>Chorus	*>Label>Chorus	*>Label>Chorus	*>Label>Chorus	*>Label>Chorus	*>Label>Chorus	*>Label>Chorus	*>Label>Chorus
8b-q	_	8gq	_	.	.	.	.	.	.
[1cc	Woah	[1a-	Woah	1Fm	newline	voice	.	40.863	F:min
=22	=22	=22	=22	=22	=22	=22	=22	=22	=22
4cc]	_	2a-]	_	1Fm	.	voice	.	42.791	F:min
8cc	Ca-	.	.	.	.	.	.	.	.
8b-	-li-	.	.	.	.	.	.	.	.
8cc	-for-	8a-	for-	.	.	.	.	.	.
4a-	-nia	4a-	-nia	.	.	.	.	.	.
.	.	8a-q	_	.	.	.	.	.	.
8a-	nights	[8g-	nights	.	.	.	.	.	.
=23	=23	=23	=23	=23	=23	=23	=23	=23	=23
1b-	_	1g-]	_	1G-M	.	voice	.	44.72	G-:maj
=24	=24	=24	=24	=24	=24	=24	=24	=24	=24
4r	.	4r	.	1G-M	.	voice	.	46.648	G-:maj
8b-	when	8g-	when	.	.	.	.	.	.
8a-	I'm	8f	I'm	.	.	.	.	.	.
8b-	wal-	8g-	wal-	.	.	.	.	.	.
8a-	-king	8~g-	-king	.	.	.	.	.	.
8g-	with	4g-	with	.	.	.	.	.	.
8g-	you	.	.	.	.	.	.	.	.
=25	=25	=25	=25	=25	=25	=25	=25	=25	=25
1a-	_	1f-	you	1F-M	newline	voice	.	48.576	F-:maj
=26	=26	=26	=26	=26	=26	=26	=26	=26	=26
4r	.	4r	.	1F-M	.	voice	.	50.487	F-:maj
8a-	hand	8f-	hand	.	.	.	.	.	.
8g-	in	8e-	in	.	.	.	.	.	.
8a-	hand	8f-	hand	.	.	.	.	.	.
8g-	by	8f-	by	.	.	.	.	.	.
4f-	the	4f-	the	.	.	.	.	.	.
=27	=27	=27	=27	=27	=27	=27	=27	=27	=27
8f#	shore	2.e	shore	1CM	.	voice	.	52.397	C:maj
[8g	_	.	.	.	.	.	.	.	.
2g]	_	.	.	.	.	.	.	.	.
4r	.	4r	.	.	.	.	.	.	.
=28	=28	=28	=28	=28	=28	=28	=28	=28	=28
8gq	_	8eq	_	.	.	.	.	.	.
2a-	I	2f	I	1CM	.	voice	.	54.308	C:maj
8a-	_	2e	_	.	.	.	.	.	.
4.b-	_	.	.	.	.	.	.	.	.
=29	=29	=29	=29	=29	=29	=29	=29	=29	=29
8b-q	_	.	.	.	.	.	.	.	.
1cc	_	1f 1a-	_	1Fm	newline	voice	.	56.219	F:min
=30	=30	=30	=30	=30	=30	=30	=30	=30	=30
4r	.	4r	.	1Fm	.	voice	.	58.147	F:min
8cc	Ca-	8cc	Ca-	.	.	.	.	.	.
8b-	-li-	8b-	-li-	.	.	.	.	.	.
8cc	-for-	8a-	-for-	.	.	.	.	.	.
.	.	8b-q	_	.	.	.	.	.	.
4a-	-nia	4cc	-nia	.	.	.	.	.	.
8a-	nights	[8g-	nights	.	.	.	.	.	.
=31	=31	=31	=31	=31	=31	=31	=31	=31	=31
1b-	_	1g-]	_	1G-M	.	voice	.	60.076	G-:maj
=32	=32	=32	=32	=32	=32	=32	=32	=32	=32
4r	.	4r	.	1G-M	.	voice	.	62.005	G-:maj
8b-	at	8g-	at	.	.	.	.	.	.
8a-	the	8g-	the	.	.	.	.	.	.
8b-	beach	8g-	beach	.	.	.	.	.	.
8a-	where	8g-	where	.	.	.	.	.	.
4g-	we'd	4g- 4b-	we'd	.	.	.	.	.	.
=33	=33	=33	=33	=33	=33	=33	=33	=33	=33
8g-	swim	1f- 1a- 1cc-	swim	1F-M	newline	voice	D	63.934	F-:maj
[8a-	_	.	.	.	.	.	.	.	.
2.a-]	_	.	.	.	.	.	.	.	.
=34	=34	=34	=34	=34	=34	=34	=34	=34	=34
8r	.	4r	.	1F-M	.	voice	.	65.842	F-:maj
8g-	a-	.	.	.	.	.	.	.	.
8a-	-with	8f- 8a- 8cc-	with	.	.	.	.	.	.
8g-	the	8f- 8a- 8cc-	the	.	.	.	.	.	.
8a-	tide	8f- 8a- 8cc-	tide	.	.	.	.	.	.
24g-	rol	8f- 8a- 8cc-	rol-	.	.	.	.	.	.
24a-	_	.	.	.	.	.	.	.	.
24g-	_	.	.	.	.	.	.	.	.
4f-	ling!	4f- 4a- 4cc-	-ling	.	.	.	.	.	.
=35	=35	=35	=35	=35	=35	=35	=35	=35	=35
8f#q	_	.	.	.	.	.	.	.	.
[1g	_	[2.e [2.g [2.cc	in!	1CM	.	voice	D	67.75	C:maj
.	.	8e] 8g] 8cc]	_	.	.	.	.	.	.
.	.	8r	.	.	.	.	.	.	.
=36	=36	=36	=36	=36	=36	=36	=36	=36	=36
2g]	_	1r	.	1CM	.	voice	.	69.658	C:maj
2r	.	.	.	.	.	.	.	.	.
=37	=37	=37	=37	=37	=37	=37	=37	=37	=37
*>Letter>B	*>Letter>B	*>Letter>B	*>Letter>B	*>Letter>B	*>Letter>B	*>Letter>B	*>Letter>B	*>Letter>B	*>Letter>B
*>Label>Verse	*>Label>Verse	*>Label>Verse	*>Label>Verse	*>Label>Verse	*>Label>Verse	*>Label>Verse	*>Label>Verse	*>Label>Verse	*>Label>Verse
4r	.	1r	.	1FM	newline	voice	.	71.565	F:maj/5
8d	And	.	.	.	.	.	.	.	.
8d	there	.	.	.	.	.	.	.	.
8e	_	.	.	.	.	.	.	.	.
4g	will	.	.	.	.	.	.	.	.
[8g	be	.	.	.	.	.	E	.	.
=38	=38	=38	=38	=38	=38	=38	=38	=38	=38
1g]	.	1r	.	1CMM	.	voice	.	73.599	C:maj7
=39	=39	=39	=39	=39	=39	=39	=39	=39	=39
4r	.	1r	.	1FM	.	voice	.	75.633	F:maj/5
4d	be-	.	.	.	.	.	.	.	.
8dq	_	.	.	.	.	.	.	.	.
8e	-neath	.	.	.	.	.	.	.	.
8g	the	.	.	.	.	.	.	.	.
4g	m	.	.	.	.	.	.	.	.
=40	=40	=40	=40	=40	=40	=40	=40	=40	=40
8a	id-	1r	.	4.Emm	.	voice	.	77.667	E:min7
[8g	-night	.	.	.	.	.	.	.	.
8g]	_	.	.	.	.	.	.	.	.
8e-q	_	.	.	.	.	.	.	.	.
[8e	_	.	.	8%5Amm	.	voice	.	78.684	A:min7
8e]	_	.	.	.	.	.	.	.	.
8d	a-	.	.	.	.	.	.	.	.
4c	-bove,	.	.	.	.	.	F	.	.
=41	=41	=41	=41	=41	=41	=41	=41	=41	=41
4r	.	1r	.	1FM	newline	voice	.	79.701	F:maj/5
8d	just	.	.	.	.	.	.	.	.
[8e	you	.	.	.	.	.	.	.	.
8e]	_	.	.	.	.	.	.	.	.
4g	and	.	.	.	.	.	.	.	.
8g#q	_	.	.	.	.	.	.	.	.
[8a	me	.	.	.	.	.	E	.	.
=42	=42	=42	=42	=42	=42	=42	=42	=42	=42
8a]	_	1r	.	1CMM	.	voice	.	81.701	C:maj7
4e	_	.	.	.	.	.	.	.	.
[8g	_	.	.	.	.	.	.	.	.
4g]	_	.	.	.	.	.	.	.	.
4r	.	.	.	.	.	.	.	.	.
=43	=43	=43	=43	=43	=43	=43	=43	=43	=43
4r	.	1r	.	1FM	.	voice	.	83.701	F:maj/5
4d	And	.	.	.	.	.	.	.	.
8e	we	.	.	.	.	.	.	.	.
4.g	will	.	.	.	.	.	.	.	.
=44	=44	=44	=44	=44	=44	=44	=44	=44	=44
4a	whis-	1r	.	4.Emm	.	voice	.	85.701	E:min7
8g	-per	.	.	.	.	.	.	.	.
8dq	_	.	.	.	.	.	.	.	.
[8e	words	.	.	8%5Amm	.	voice	.	86.701	A:min7
8e]	_	.	.	.	.	.	.	.	.
8d	of	.	.	.	.	.	.	.	.
4c	love,	.	.	.	.	.	F	.	.
=45	=45	=45	=45	=45	=45	=45	=45	=45	=45
8gq	_	.	.	.	.	.	.	.	.
4a	while	1r	.	4.Emm	newline	voice	.	87.701	E:min7
8g	the	.	.	.	.	.	.	.	.
8dq	_	.	.	.	.	.	.	.	.
[8e	fi	.	.	8%5Amm	.	voice	.	88.68	A:min7
8e]	_	.	.	.	.	.	.	.	.
8d	re-	.	.	.	.	.	.	.	.
4c	-lights	.	.	.	.	.	.	.	.
=46	=46	=46	=46	=46	=46	=46	=46	=46	=46
4a	soft	4r	.	2Dmm	.	voice	.	89.659	D:min7
8r	.	4f	Soft!	.	.	.	.	.	.
8g	ly	.	.	.	.	.	.	.	.
6e	fli-	2r	.	2GM	.	voice	.	90.638	G:maj
6d	-cker	.	.	.	.	.	.	.	.
8cq	_	.	.	.	.	.	.	.	.
6c	in	.	.	.	.	.	.	.	.
=47	=47	=47	=47	=47	=47	=47	=47	=47	=47
6d	the	1r	.	4CM	.	voice	.	91.617	C:sus4
[3c	sand	.	.	.	.	.	.	.	.
.	.	.	.	4CM	.	voice	.	92.107	C:maj
2c_	_	.	.	4CM	.	voice	.	92.597	C:sus4
.	.	.	.	4CM	.	voice	.	93.086	C:maj
=48	=48	=48	=48	=48	=48	=48	=48	=48	=48
2.c]	_	1r	.	4Fm	.	voice	.	93.576	F:min/5
.	.	.	.	4CM	.	voice	.	94.065	C:maj
.	.	.	.	4Fm	.	voice	.	94.555	F:min/5
4r	.	.	.	4CM	.	voice	.	95.045	C:maj
=49	=49	=49	=49	=49	=49	=49	=49	=49	=49
*>Letter>C	*>Letter>C	*>Letter>C	*>Letter>C	*>Letter>C	*>Letter>C	*>Letter>C	*>Letter>C	*>Letter>C	*>Letter>C
*>Label>Chorus	*>Label>Chorus	*>Label>Chorus	*>Label>Chorus	*>Label>Chorus	*>Label>Chorus	*>Label>Chorus	*>Label>Chorus	*>Label>Chorus	*>Label>Chorus
.	.	8gq	_	.	.	.	.	.	.
8b-	Whoa,	1a-	whoa	1Fm	newline	voice	.	95.534	F:min
[8cc	_	.	.	.	.	.	.	.	.
2.cc_	_	.	.	.	.	.	.	.	.
=50	=50	=50	=50	=50	=50	=50	=50	=50	=50
4cc]	_	4r	.	1Fm	.	voice	.	97.452	F:min
8cc	Ca-	8a-	_	.	.	.	.	.	.
8b-	-li-	8~g	_	.	.	.	.	.	.
8cc	-for-	8a-	_	.	.	.	.	.	.
.	.	8gq	_	.	.	.	.	.	.
4a-	-nia	4a-	_	.	.	.	.	.	.
.	.	8a-q	_	.	.	.	.	.	.
8a-	nights	[8g-	_	.	.	.	.	.	.
=51	=51	=51	=51	=51	=51	=51	=51	=51	=51
1b-	_	1g-]	_	1G-M	.	voice	.	99.369	G-:maj
=52	=52	=52	=52	=52	=52	=52	=52	=52	=52
4r	.	4r	.	1G-M	.	voice	.	101.287	G-:maj
8b-	with	8g-	_	.	.	.	.	.	.
8a-	the	8~g-	_	.	.	.	.	.	.
8b-	breeze	8g-	_	.	.	.	.	.	.
8a-	blo-	8f	_	.	.	.	.	.	.
4g-	-wing	4g-	_	.	.	.	.	.	.
=53	=53	=53	=53	=53	=53	=53	=53	=53	=53
1a-	in	1f-	_	1F-M	newline	voice	D	103.204	F-:maj
=54	=54	=54	=54	=54	=54	=54	=54	=54	=54
4r	.	4r	.	1F-M	.	voice	.	105.136	F-:maj
8a-	time	8f-	_	.	.	.	.	.	.
8g-	for	8e-	_	.	.	.	.	.	.
8a-	love	8f-	_	.	.	.	.	.	.
8g-	to	8~f-	_	.	.	.	.	.	.
8f-	be-	4f-	_	.	.	.	.	.	.
8f#	-gin	.	.	.	.	.	D	.	.
=55	=55	=55	=55	=55	=55	=55	=55	=55	=55
2.g	_	2.e	_	1CM	.	voice	.	107.068	C:maj
4r	.	4r	.	.	.	.	.	.	.
=56	=56	=56	=56	=56	=56	=56	=56	=56	=56
.	.	8eq	_	.	.	.	.	.	.
8g	I	2f	_	1CM	.	voice	.	109	C:maj
4.a-	_	.	.	.	.	.	.	.	.
8a-	would	2e	_	.	.	.	.	.	.
4.b-	_	.	.	.	.	.	.	.	.
=57	=57	=57	=57	=57	=57	=57	=57	=57	=57
8b-	miss	1f 1a- 1cc	_	1Fm	newline	voice	.	110.932	F:min
[8cc	_	.	.	.	.	.	.	.	.
2.cc]	_	.	.	.	.	.	.	.	.
=58	=58	=58	=58	=58	=58	=58	=58	=58	=58
4r	.	4r	.	1Fm	.	voice	.	112.867	F:min
8cc	Ca-	8a- 8cc	_	.	.	.	.	.	.
8b-	-li-	8~g 8b-	_	.	.	.	.	.	.
8cc	-for-	8a- 8cc	_	.	.	.	.	.	.
8b-q	_	8b-q	_	.	.	.	.	.	.
4cc	-nia	4a- 4cc	_	.	.	.	.	.	.
8a-q	_	.	.	.	.	.	.	.	.
[8b-	nights	[8d- [8g- [8b-	_	.	.	.	.	.	.
=59	=59	=59	=59	=59	=59	=59	=59	=59	=59
1b-]	_	1d-] 1g-] 1b-]	_	1G-M	.	voice	.	114.803	G-:maj
=60	=60	=60	=60	=60	=60	=60	=60	=60	=60
4r	.	4r	.	1G-M	.	voice	.	116.739	G-:maj
8b-	if	8g-	_	.	.	.	.	.	.
8a-	I	8g-	_	.	.	.	.	.	.
8b-	went	8g-	_	.	.	.	.	.	.
8a-	on	8g-	_	.	.	.	.	.	.
8g-	my	4g- 4b-	_	.	.	.	.	.	.
8g-	w-	.	.	.	.	.	.	.	.
=61	=61	=61	=61	=61	=61	=61	=61	=61	=61
1a-	-ay	1f- 1a- 1cc-	_	1F-M	newline	voice	G	118.675	F-:maj
=62	=62	=62	=62	=62	=62	=62	=62	=62	=62
4r	.	4r	.	1F-M	.	voice	.	120.627	F-:maj
8a-	thank	8f- 8a- 8cc-	_	.	.	.	.	.	.
8g-	you	8f- 8a- 8cc-	_	.	.	.	.	.	.
8gq	_	.	.	.	.	.	.	.	.
8a-	now,	8f- 8a- 8cc-	_	.	.	.	.	.	.
8g-	but	8f- 8a- 8cc-	_	.	.	.	.	.	.
4f-	I'll	4f- 4a- 4cc-	_	.	.	.	.	.	.
=63	=63	=63	=63	=63	=63	=63	=63	=63	=63
8~e	stay	[2.e [2.g [2.cc	_	1CM	.	voice	G	122.58	C:maj
[8g	_	.	.	.	.	.	.	.	.
2g]	_	.	.	.	.	.	.	.	.
4r	.	8e] 8g] 8cc]	_	.	.	.	.	.	.
.	.	8r	.	.	.	.	.	.	.
=64	=64	=64	=64	=64	=64	=64	=64	=64	=64
1r	.	1r	.	1CM	.	voice	.	124.532	C:maj
=65	=65	=65	=65	=65	=65	=65	=65	=65	=65
*>Letter>D	*>Letter>D	*>Letter>D	*>Letter>D	*>Letter>D	*>Letter>D	*>Letter>D	*>Letter>D	*>Letter>D	*>Letter>D
*>Label>Interlude	*>Label>Interlude	*>Label>Interlude	*>Label>Interlude	*>Label>Interlude	*>Label>Interlude	*>Label>Interlude	*>Label>Interlude	*>Label>Interlude	*>Label>Interlude
1r	.	1d	Ooh	1GMm	newline	voice	.	126.485	G:7
=66	=66	=66	=66	=66	=66	=66	=66	=66	=66
4r	.	8B	_	1GMm	.	voice	.	128.407	G:7
.	.	8B	wa-	.	.	.	.	.	.
8r	.	8B	-ooh-	.	.	.	.	.	.
8g#	Ooh,	8B	-wa-	.	.	.	.	.	.
8a	_	8B	-ooh-	.	.	.	.	.	.
4e	_	8B	-wa-	.	.	.	.	.	.
.	.	8B	-ooh-	.	.	.	.	.	.
8g#	ba	8B	-wa-	.	.	.	.	.	.
=67	=67	=67	=67	=67	=67	=67	=67	=67	=67
4.a	_	1d	-ooh	1GMm	.	voice	.	130.33	G:7
8g#	by,	.	.	.	.	.	.	.	.
8a	_	.	.	.	.	.	.	.	.
8r	.	.	.	.	.	.	.	.	.
4r	.	.	.	.	.	.	.	.	.
=68	=68	=68	=68	=68	=68	=68	=68	=68	=68
4r	.	8B	_	1GMm	.	voice	.	132.252	G:7
.	.	8B	wa-	.	.	.	.	.	.
8r	.	8B	-ooh-	.	.	.	.	.	.
8g	l-	8B	-wa-	.	.	.	.	.	.
8a	-love	8B	-ooh-	.	.	.	.	.	.
8g	a-	8B	-wa-	.	.	.	.	.	.
8a	-you	8B	-ooh-	.	.	.	.	.	.
8g#	ba	8B	-wa-	.	.	.	.	.	.
=69	=69	=69	=69	=69	=69	=69	=69	=69	=69
4.a	_	1d	-ooh	1GMm	newline	voice	.	134.175	G:7
8g#	by	.	.	.	.	.	.	.	.
8a	_	.	.	.	.	.	.	.	.
8r	.	.	.	.	.	.	.	.	.
4r	.	.	.	.	.	.	.	.	.
=70	=70	=70	=70	=70	=70	=70	=70	=70	=70
4r	.	8B	_	1GMm	.	voice	.	136.066	G:7
.	.	8B	wa-	.	.	.	.	.	.
8r	.	8B	-ooh-	.	.	.	.	.	.
8g#	Mmm	8B	-wa-	.	.	.	.	.	.
4a	_	8B	-ooh-	.	.	.	.	.	.
.	.	8B	-wa-	.	.	.	.	.	.
8r	.	8B	-ooh-	.	.	.	.	.	.
8g#	ba	8B	-wa-	.	.	.	.	.	.
=71	=71	=71	=71	=71	=71	=71	=71	=71	=71
4.a	_	[1d	-ooh	1GMm	.	voice	.	137.956	G:7
8a	by	.	.	.	.	.	.	.	.
2cc	_	.	.	.	.	.	.	.	.
=72	=72	=72	=72	=72	=72	=72	=72	=72	=72
2.dd	_	2d]	.	1GMm	.	voice	.	139.847	G:7
.	.	2r	.	.	.	.	.	.	.
8r	.	.	.	.	.	.	.	.	.
8~a-	L-	.	.	.	.	.	.	.	.
=73	=73	=73	=73	=73	=73	=73	=73	=73	=73
*>Letter>C	*>Letter>C	*>Letter>C	*>Letter>C	*>Letter>C	*>Letter>C	*>Letter>C	*>Letter>C	*>Letter>C	*>Letter>C
*>Label>Chorus	*>Label>Chorus	*>Label>Chorus	*>Label>Chorus	*>Label>Chorus	*>Label>Chorus	*>Label>Chorus	*>Label>Chorus	*>Label>Chorus	*>Label>Chorus
.	.	8gq	_	.	.	.	.	.	.
8b-	-love	1a-	love	1Fm	newline	voice	.	141.738	F:min
[8cc	_	.	.	.	.	.	.	.	.
2.cc_	_	.	.	.	.	.	.	.	.
=74	=74	=74	=74	=74	=74	=74	=74	=74	=74
8cc]	_	4r	.	1Fm	.	voice	.	143.651	F:min
8r	.	.	.	.	.	.	.	.	.
8cc	Ca-	8a-	Ca-	.	.	.	.	.	.
8b-	-li-	8~g	-li-	.	.	.	.	.	.
8cc	-for-	8a-	-for-	.	.	.	.	.	.
.	.	8gq	_	.	.	.	.	.	.
4a-	-nia	4a-	-nia	.	.	.	.	.	.
.	.	8a-q	_	.	.	.	.	.	.
8a-	nights	[8g-	nights	.	.	.	.	.	.
=75	=75	=75	=75	=75	=75	=75	=75	=75	=75
1b-	_	1g-]	_	1G-M	.	voice	.	145.564	G-:maj
=76	=76	=76	=76	=76	=76	=76	=76	=76	=76
4r	.	4r	.	1G-M	.	voice	.	147.478	G-:maj
8b-	al-	8g-	al-	.	.	.	.	.	.
8a-	-ways	8~g-	-ways	.	.	.	.	.	.
8b-	plus	8g-	plus	.	.	.	.	.	.
8a-	is	8f	is	.	.	.	.	.	.
8g-	a	4g-	a	.	.	.	.	.	.
16a-	kiss	.	.	.	.	.	H	.	.
16a	_	.	.	.	.	.	.	.	.
=77	=77	=77	=77	=77	=77	=77	=77	=77	=77
[2.a-	_	1f-	kiss	1F-M	newline	voice	.	149.391	F-:maj
8a-]	_	.	.	.	.	.	.	.	.
8r	.	.	.	.	.	.	.	.	.
=78	=78	=78	=78	=78	=78	=78	=78	=78	=78
8r	.	4r	.	1F-M	.	voice	.	151.288	F-:maj
8~g-	n-	.	.	.	.	.	.	.	.
8a-	-no-	8f-	no-	.	.	.	.	.	.
8g-	-thing	8~e-	-thing	.	.	.	.	.	.
8a-	swee-	8f-	swee-	.	.	.	.	.	.
8g-	-ter	8~f-	-ter	.	.	.	.	.	.
4a-	than	4f-	than	.	.	.	.	.	.
=79	=79	=79	=79	=79	=79	=79	=79	=79	=79
2.g	this	2.e	this	1CM	.	voice	H	153.186	C:maj
4r	.	4r	.	.	.	.	.	.	.
=80	=80	=80	=80	=80	=80	=80	=80	=80	=80
8gq	_	8eq	_	.	.	.	.	.	.
2a-	And	2f	and	1CM	.	voice	.	155.083	C:maj
8a-	we'll	2e	we'll	.	.	.	.	.	.
4.b-	_	.	.	.	.	.	.	.	.
=81	=81	=81	=81	=81	=81	=81	=81	=81	=81
*>Label>>Fadeout	*>Label>>Fadeout	*>Label>>Fadeout	*>Label>>Fadeout	*>Label>>Fadeout	*>Label>>Fadeout	*>Label>>Fadeout	*>Label>>Fadeout	*>Label>>Fadeout	*>Label>>Fadeout
8b-	spend	1f 1a- 1cc	spend	1Fm	newline	voice	.	156.98	F:min
[8cc	_	.	.	.	.	.	.	.	.
2.cc]	_	.	.	.	.	.	.	.	.
=82	=82	=82	=82	=82	=82	=82	=82	=82	=82
4r	.	4r	.	1Fm	.	voice	.	158.887	F:min
8cc	Ca-	8a- 8cc	Ca-	.	.	.	.	.	.
8b-	-li-	8~g 8b-	-li-	.	.	.	.	.	.
8cc	-for-	8a- 8cc	-for-	.	.	.	.	.	.
.	.	8b-q	_	.	.	.	.	.	.
8b-	-ni-	4a- 4cc	-ni-	.	.	.	.	.	.
8cc	-a	.	.	.	.	.	.	.	.
16b-	nights	[8d- [8g- [8b-	-nights	.	.	.	.	.	.
16cc	_	.	.	.	.	.	.	.	.
=83	=83	=83	=83	=83	=83	=83	=83	=83	=83
1b-	_	1d-] 1g-] 1b-]	_	1G-M	.	voice	.	160.794	G-:maj
=84	=84	=84	=84	=84	=84	=84	=84	=84	=84
4r	.	4r	.	1G-M	.	voice	.	162.7	G-:maj
8b-	al-	8g-	al-	.	.	.	.	.	.
8a-	-ways	8g-	-ways	.	.	.	.	.	.
8b-	plus	8g-	plus	.	.	.	.	.	.
8a-	is	8g-	is	.	.	.	.	.	.
8b-	a	4g- 4b-	a	.	.	.	.	.	.
16a-	kiss	.	.	.	.	.	.	.	.
16a	_	.	.	.	.	.	.	.	.
=85	=85	=85	=85	=85	=85	=85	=85	=85	=85
1a-	.	1f- 1a- 1cc-	kiss...	1F-M	newline	voice	.	164.607	F-:maj
=86	=86	=86	=86	=86	=86	=86	=86	=86	=86
1r	.	1r	.	1F-M	.	voice	.	165.353	F-:maj
=87	=87	=87	=87	=87	=87	=87	=87	=87	=87
1r	.	1r	.	1CM	.	voice	.	166.099	C:maj
=88	=88	=88	=88	=88	=88	=88	=88	=88	=88
1r	.	1r	.	1CM	.	voice	.	166.846	C:maj
r;	.	r;	.	1r;	.	r	.	167.592	N.C.
r;	.	r;	.	1r;	.	r	.	169.501	N.C.
*-	*-	*-	*-	*-	*-	*-	*-	*-	*-
!!!BillboardChartDate: 1967/04/22, 1967/03/11
!!!BillboardPeak: 16, 16
!!!BillboardWeeksOnChart: 14, 14
!!!COC: Lesley Gore
!!!ENC: Nathaniel Condit-Schultz
!!!EST: Awating manual error checking and editing.
!!!OTL: California Nights
!!!RDF**chordsym: original McGill chord annotation + (implied pitch class set, with bass pitch in first position)
!!!RDF**harmony: **recip + pitch class of root + harmonic quality
!!!RDF**leadinstrument: original McGill primary instrumentation annotation
!!!RDF**phrase: newline = linebreak in original McGill transcription
!!!RDF**timestamp: McGill audio timestamp in seconds
!!!RDT: 2017/01/12/
!!!SampleActualRank: 33, 27
!!!SampleID#: 813, 896
!!!SampleTargetRank: 32, 25
